!!!!SEGMENT: pl-kk--kk-i-3--032_anonim--nuntiavit-archangelus-mariae.krn
!!!cenid: 15xx:640
!!!COM: Anonim
!!!COM-rismid: pe30004985
!!!CDT:
!!!CNT:
!!!OTL: Nuntiavit archangelus Mariae
!!!PDT:
!!!AGN:
!!!SMS-siglum: PL-Kk
!!!SMS-shelfmark: Kk.I.3
!!!SMS-shelfwork: 032 W
!!!SMS-variant:
!!!SMS-altvar:
!!!NIFC-rismid: 1001145493
!!!URL-scan: http://repozytorium.nifc.pl/skany/pl-kk-nut--i-3
!!!ONB-nifc: UWAGA: Discantus (s. 101r-102r, skan 0103-0104), Tenor (s. 75v-76r, skan 0248), Bassus (s. 99r-v, skan 0402-0403)
!!!key: d:dor
**kern	**text	**text	**kern	**text	**text	**kern	**text	**text
*group1	*	*	*group1	*	*	*group1	*	*
*part3	*part3	*part3	*part2	*part2	*part2	*part1	*part1	*part1
*staff3	*staff3	*staff3	*staff2	*staff2	*staff2	*staff1	*staff1	*staff1
*I"[Bassus]	*	*	*I"[Tenor]	*	*	*I"[Discantus]	*	*
*I'[B]	*	*	*I'[T]	*	*	*I'[S]	*	*
*Ibass	*	*	*Itenor	*	*	*Isoprn	*	*
*ICvox	*	*	*ICvox	*	*	*ICvox	*	*
*clefF4	*	*	*clefC5	*	*	*clefC3	*	*
*k[]	*	*	*k[]	*	*	*k[]	*	*
*C:	*	*	*C:	*	*	*C:	*	*
*M2/1	*	*	*M2/1	*	*	*M2/1	*	*
*met(C|)	*	*	*met(C|)	*	*	*met(C|)	*	*
=1-	=1-	=1-	=1-	=1-	=1-	=1-	=1-	=1-
!	!	!	!	!	!	!LO:TX:t=P:problem:brak źródła tekstowego w Internecie	!	!
1D	Nun-	Vir-	1D	Nun-	Vir-	1d	Nun-	Vir-
0C	-cti-	-go	0G	-cti-	-go	0e	-cti-	-go
=2-	=2-	=2-	=2-	=2-	=2-	=2-	=2-	=2-
.	.	.	.	.	.	.	.	.
1F	-a-	stu-	1A	-a-	stu-	2c/	-a-	.
.	.	.	.	.	.	2d/	.	stu-
=3-	=3-	=3-	=3-	=3-	=3-	=3-	=3-	=3-
1E	-vit	-pet	1G	-vit	-pet	1e	-vit	-pet
1C	Ar-	et	1c	ar-	et	1e	ar-	et
=4-	=4-	=4-	=4-	=4-	=4-	=4-	=4-	=4-
1G	-chan-	mi-	1B	-chan-	mi-	1d	-chan-	mi-
1D	-ge-	-ra-	1A	-ge-	-ra-	1f	-ge-	-ra-
!	!	!	!	!	!	!LO:SIC:v:t=custos e	!	!
!	!	!	!	!	!	!LO:LB:g=original	!	!
=5-	=5-	=5-	=5-	=5-	=5-	=5-	=5-	=5-
1E	-lus	-tur	1G	-lus	-tur	1e	-lus	-tur
!LO:SIC:v:t=custos F	!	!	!	!	!	!	!	!
!LO:LB:g=original	!	!	!	!	!	!	!	!
!LO:TX:t=P:problem:nieczytelny zapis 2 zwrotki tekstu	!	!	!LO:TX:t=P:problem:nieczytelny zapis 2 zwrotki tekstu	!	!	!LO:TX:t=P:problem:nieczytelny zapis 2 zwrotki tekstu	!	!
1F	Ma-	.	1A	Ma-	.	1c	Ma-	.
!	!	!	!LO:SIC:v:t=custos B	!	!	!	!	!
!	!	!	!LO:LB:g=original	!	!	!	!	!
=6-	=6-	=6-	=6-	=6-	=6-	=6-	=6-	=6-
*lig	*	*	*lig	*	*	*lig	*	*
1D	-ri-	tam	1B	-ri-	tam	1d	-ri-	tam
1C	.	.	1c	.	.	1e	.	.
*Xlig	*	*	*Xlig	*	*	*Xlig	*	*
=7-	=7-	=7-	=7-	=7-	=7-	=7-	=7-	=7-
1D	-e	gran-	1A	-e	gran-	1f	-e	gran-
1GG	de	-dis	1G	de	-dis	1d	de	-dis
=8-	=8-	=8-	=8-	=8-	=8-	=8-	=8-	=8-
1AA	ce-	vir-	1E	ce-	vir-	1c	ce-	vir-
1D	-lo	-tus	1F	-lo	-tus	1d	-lo	-tus
=9-	=9-	=9-	=9-	=9-	=9-	=9-	=9-	=9-
*	*	*	*lig	*	*	*	*	*
1C	mis-	da-	1E	miſ-	da-	1e	miſ-	da-
*lig	*	*	*	*	*	*2\right	*	*
1D	.	.	1D	.	.	2f\	.	.
.	.	.	.	.	.	1d\	.	.
*	*	*	*Xlig	*	*	*	*	*
=10-	=10-	=10-	=10-	=10-	=10-	=10-	=10-	=10-
1AA	.	.	1E	.	.	.	.	.
!	!	!	!	!	!	!LO:SIC:v:s:t=2c#/	!	!
.	.	.	.	.	.	2c/	.	.
*Xlig	*	*	*	*	*	*	*	*
1D	-sus	-tur	1D	-sus	-tur	1d	-sus	-tur
!	!	!	!	!	!	!LO:SIC:v:t=custos d	!	!
!	!	!	!	!	!	!LO:LB:g=original	!	!
=11-	=11-	=11-	=11-	=11-	=11-	=11-	=11-	=11-
1GG	con-	con-	1G	con-	con-	1d	con-	con-
2C/	.	-cep-	1G	-ci-	-cep-	1e	-ci-	-cep-
1C/	-ci-	-tus	.	.	.	.	.	.
=12-	=12-	=12-	=12-	=12-	=12-	=12-	=12-	=12-
.	.	.	1D	-pi-	-tus	1f	-pi-	-tus
2BB/	-pi-	.	.	.	.	.	.	.
!LO:SIC:v:t=custos C	!	!	!LO:SIC:v:t=custos G	!	!	!	!	!
!LO:LB:g=original	!	!	!LO:LB:g=original	!	!	!	!	!
*	*	*	*clefC4	*	*	*	*	*
1C	-es	om-	1G	-es	om-	1e	-es	om-
=13-	=13-	=13-	=13-	=13-	=13-	=13-	=13-	=13-
1BB	et	-ni-	1G	et	-ni-	1d	et	-ni-
1AA	pa-	-po-	1A	pa-	-po-	1c	pa-	-po-
=14-	=14-	=14-	=14-	=14-	=14-	=14-	=14-	=14-
1D	-ri-	-ten-	1F	-ri-	-ten-	1d	-ri-	-ten-
1C	-es	-tis	1G	-es	-tis	1e	-es	-tis
=15-	=15-	=15-	=15-	=15-	=15-	=15-	=15-	=15-
1F	in	de-	1A	in	De-	1f	in	de-
*lig	*	*	*lig	*	*	*lig	*	*
1G	u-	-i	1B	u-	-i	1d	u-	-i
=16-	=16-	=16-	=16-	=16-	=16-	=16-	=16-	=16-
1C	.	.	1c	.	.	1e	.	.
*Xlig	*	*	*Xlig	*	*	*Xlig	*	*
1D	-te-	pa-	1A	-te-	pa-	1f	-te-	pa-
!	!	!	!	!	!	!LO:SIC:v:t=custos e	!	!
!	!	!	!	!	!	!LO:PB:g=original	!	!
=17-	=17-	=17-	=17-	=17-	=17-	=17-	=17-	=17-
*lig	*	*	*lig	*	*	*lig	*	*
1E	-ro	-tris	1G	-ro	-tris	1e	-ro	-tris
1D	.	.	1A	.	.	1f	.	.
*Xlig	*	*	*Xlig	*	*	*Xlig	*	*
=18-	=18-	=18-	=18-	=18-	=18-	=18-	=18-	=18-
1D	fi-	fi-	1F	fi-	fi-	1d	fi-	fi-
1GG	-li-	-lij	1G	-li-	-lij	1d	-li-	-lij
=19-	=19-	=19-	=19-	=19-	=19-	=19-	=19-	=19-
0GG;>	-um	.	0G;;	-um	.	0dl\;<	-um	.
!LO:SIC:v:t=custos GG	!	!	!LO:SIC:v:t=custos G	!	!	!	!	!
!LO:LB:g=original	!	!	!LO:LB:g=original	!	!	!	!	!
=20||-	=20||-	=20||-	=20||-	=20||-	=20||-	=20||-	=20||-	=20||-
*lig	*	*	*lig	*	*	*	*	*
1GG	A-	Vir-	1G	A-	Vir-	1d	A-	Vir-
1D	.	.	1A	.	-go	1f	.	.
*Xlig	*	*	*Xlig	*	*	*	*	*
=21-	=21-	=21-	=21-	=21-	=21-	=21-	=21-	=21-
*	*	*	*	*	*	*lig	*	*
1C	-ve	-go	1c	-ve	.	1e	-ve	-go
*lig	*	*	*lig	*	*	*	*	*
1G	in	an-	1B	in	an-	1d	.	.
*	*	*	*	*	*	*Xlig	*	*
=22-	=22-	=22-	=22-	=22-	=22-	=22-	=22-	=22-
1F	.	.	1A	.	.	1f	in	an-
*Xlig	*	*	*Xlig	*	*	*	*	*
*lig	*	*	*lig	*	*	*	*	*
1G	quit	-cil-	1B	quit	-cil-	1d	quit	-cil-
!	!	!	!	!	!	!LO:SIC:v:t=custos e	!	!
!	!	!	!	!	!	!LO:LB:g=original	!	!
=23-	=23-	=23-	=23-	=23-	=23-	=23-	=23-	=23-
1C	.	.	1c	.	.	2e/	.	.
.	.	.	.	.	.	1c	i-	-la
*Xlig	*	*	*Xlig	*	*	*	*	*
1G	i-	-la	1d	i-	-la	.	.	.
.	.	.	.	.	.	2B/	-am	.
=24-	=24-	=24-	=24-	=24-	=24-	=24-	=24-	=24-
*lig	*	*	*lig	*	*	*	*	*
1C	-am	hu-	1c	-am	hu-	1A	non	hu-
1GG	no(n)	.	1B	.	.	2B/	.	.
.	.	.	.	.	.	1G/	mi-	-mi-
*Xlig	*	*	*Xlig	*	*	*	*	*
=25-	=25-	=25-	=25-	=25-	=25-	=25-	=25-	=25-
*lig	*	*	*lig	*	*	*	*	*
1D	mi-	-mi-	1A	non-	-mil-	.	.	.
.	.	.	.	.	.	2F/	.	.
1GG	.	.	1G	.	.	2G/	.	.
.	.	.	.	.	.	1d\	.	.
*Xlig	*	*	*Xlig	*	*	*	*	*
=26-	=26-	=26-	=26-	=26-	=26-	=26-	=26-	=26-
1D	-se-	-li	1A	-mi-	-li	.	.	.
.	.	.	.	.	.	2d/	-se-	-li
1E	-ris	ma-	1G	-se-	ma-	1B	-ris	ma-
=27-	=27-	=27-	=27-	=27-	=27-	=27-	=27-	=27-
*lig	*	*	*lig	*	*	*lig	*	*
1E	ma-	-ni	1G	-ris	-ni	1e	ma-	-ni
1D	.	.	1A	ma-	.	1f	.	.
*Xlig	*	*	*Xlig	*	*	*Xlig	*	*
=28-	=28-	=28-	=28-	=28-	=28-	=28-	=28-	=28-
*	*	*	*	*	*	*lig	*	*
1C	-ter	quit	1c	-ter	quit	1e	-ter	quit
!LO:SIC:v:t=custos G	!	!	!	!	!	!	!	!
!LO:LB:g=original	!	!	!	!	!	!	!	!
*lig	*	*	*lig	*	*	*	*	*
1G	de-	sum	1B	de-	su(m)	1d	.	.
*	*	*	*	*	*	*Xlig	*	*
!	!	!	!	!	!	!LO:SIC:v:t=custos f	!	!
!	!	!	!	!	!	!LO:LB:g=original	!	!
=29-	=29-	=29-	=29-	=29-	=29-	=29-	=29-	=29-
1F	.	.	1A	.	.	1f	De-	sum
*Xlig	*	*	*Xlig	*	*	*	*	*
*lig	*	*	*lig	*	*	*	*	*
!	!	!	!LO:SIC:v:t=custos B	!	!	!	!	!
!	!	!	!LO:LB:g=original	!	!	!	!	!
1G	-i	sit	1B	-i	sit	1d	-i	sit
=30-	=30-	=30-	=30-	=30-	=30-	=30-	=30-	=30-
1C	.	.	1c	.	.	2e\	tu	.
.	.	.	.	.	.	1c	so-	vo-
*Xlig	*	*	*Xlig	*	*	*	*	*
1G	tu	vo-	1d	tu	vo-	.	.	.
.	.	.	.	.	.	2B/	.	-lun-
=31-	=31-	=31-	=31-	=31-	=31-	=31-	=31-	=31-
*lig	*	*	*lig	*	*	*	*	*
1C	so-	-lun-	1c	so-	-lun-	1A	.	.
1GG	.	.	1B	.	.	2B/	-la	-tas
.	.	.	.	.	.	1G/	.	.
*Xlig	*	*	*Xlig	*	*	*	*	*
=32-	=32-	=32-	=32-	=32-	=32-	=32-	=32-	=32-
*lig	*	*	*lig	*	*	*	*	*
1D	-la	-tas	1A	-la	-tas	.	.	.
.	.	.	.	.	.	2F/	.	.
1E	.	.	1G	.	.	1G	e-	il-
*Xlig	*	*	*Xlig	*	*	*	*	*
=33-	=33-	=33-	=33-	=33-	=33-	=33-	=33-	=33-
1D	e-	il-	1A	e-	il-	1d	-ris	.
1E,>	-ris	-la	1G	-ris	-la	1B	.	-la
=34-	=34-	=34-	=34-	=34-	=34-	=34-	=34-	=34-
1C	vir-	ut	1A	vir-	vt	1e	vir-	vt
!	!	!	!	!	!	!LO:SIC:v:t=custos d	!	!
!	!	!	!	!	!	!LO:LB:g=original	!	!
*lig	*	*	*	*	*	*	*	*
1BB	-go	tu	1B	-go	tu	1d	-go	tu
=35-	=35-	=35-	=35-	=35-	=35-	=35-	=35-	=35-
*	*	*	*lig	*	*	*	*	*
!	!	!	!LO:SIC:v:s:t=1c	!	!	!	!	!
1AA	.	.	1B	.	.	1c	.	.
*Xlig	*	*	*	*	*	*lig	*	*
2GG/	per	.	1A	.	.	1d	per-	di-
1G\	.	di-	.	.	.	.	.	.
*	*	*	*Xlig	*	*	*	*	*
=36-	=36-	=36-	=36-	=36-	=36-	=36-	=36-	=36-
.	.	.	1A	per-	di-	1c	.	.
*2\right	*	*	*	*	*	*	*	*
2F\	ma-	-cis	.	.	.	.	.	.
*	*	*	*	*	*	*Xlig	*	*
!LO:SIC:v:t=custos G	!	!	!	!	!	!	!	!
!LO:PB:g=original	!	!	!	!	!	!	!	!
1G	-nens	Sit	1G	-ma-	-cis	1B	-ma-	-cis
=37-	=37-	=37-	=37-	=37-	=37-	=37-	=37-	=37-
1C	in	per-	1E	-nens	sic	2c/	-nens	sic
.	.	.	.	.	.	1e	.	.
!	!	!	!LO:SIC:v:t=custos F	!	!	!	!	!
!	!	!	!LO:PB:g=original	!	!	!	!	!
1D	ta-	-si-	1F	in	per-	.	.	.
.	.	.	.	.	.	2d/	in	per-
=38-	=38-	=38-	=38-	=38-	=38-	=38-	=38-	=38-
*	*	*	*lig	*	*	*	*	*
1AA	.	.	1E	ta-	-si-	1e	ta-	-si-
*lig	*	*	*	*	*	*	*	*
1D	.	-stat	1D	.	.	2A/	.	.
.	.	.	.	.	.	1d\	.	.
*	*	*	*Xlig	*	*	*	*	*
=39-	=39-	=39-	=39-	=39-	=39-	=39-	=39-	=39-
1AA	-cta	.	1E	.	.	.	.	.
!	!	!	!	!	!	!LO:SIC:v:s:t=2c#/	!	!
.	.	.	.	.	.	2c/	-cta	-stat
*Xlig	*	*	*	*	*	*	*	*
1D	ver-	vir-	1D	-cta	-stat	1d	.	.
=40-	=40-	=40-	=40-	=40-	=40-	=40-	=40-	=40-
1C	-bu(m)	-tus	1G	ver-	vir-	1e	ver	vir-
!	!	!	!	!	!	!LO:SIC:v:t=custos d	!	!
!	!	!	!	!	!	!LO:LB:g=original	!	!
1GG	de-	om-	1G	-bum	-tus	1d	de-	-tus
=41-	=41-	=41-	=41-	=41-	=41-	=41-	=41-	=41-
1D	-i	-ni-	1D	de-	om-	1f	-i	om-
1C	pa-	.	1G	-i	-ni-	1e	pa-	-ni-
=42-	=42-	=42-	=42-	=42-	=42-	=42-	=42-	=42-
1AA	-ri-	-po-	1A	pa-	-po-	1c	-ri-	-po-
!LO:SIC:v:l:s:t=-ens	!	!	!	!	!	!LO:SIC:v:l:s:t=-ens	!	!
1D	-es	-ten-	1F	-ri-	-ten-	1d	-es	-ten-
=43-	=43-	=43-	=43-	=43-	=43-	=43-	=43-	=43-
0GG;;	.	-tis	0G;>	-ens	-tis	0dl;<\	.	-tis
!LO:SIC:v:t=custos GG	!	!	!LO:SIC:v:t=custos G	!	!	!	!	!
!LO:LB:g=original	!	!	!LO:LB:g=original	!	!	!	!	!
=44||-	=44||-	=44||-	=44||-	=44||-	=44||-	=44||-	=44||-	=44||-
1GG	O	In	1G	O	In	1d	O	In
1C	Ma-	E-	1E	Ma-	E-	1e	Ma-	E-
=45-	=45-	=45-	=45-	=45-	=45-	=45-	=45-	=45-
1AA	-ri-	-xi-	1F	-ri-	-xi-	1c	-ri-	-xi-
!	!	!	!	!	!	!LO:SIC:v:t=custos f	!	!
!	!	!	!	!	!	!LO:PB:g=original	!	!
1D	-a	-tu	1D	-a	-tu	1f	-a	-tu
=46-	=46-	=46-	=46-	=46-	=46-	=46-	=46-	=46-
1C	flos	hu-	1E	flos	hu-	1e	flos	hu-
2GG/	vir-	-ius	1G	vir-	-ius	2d/	vir-	-ius
2C/	.	.	.	.	.	1e\	.	.
=47-	=47-	=47-	=47-	=47-	=47-	=47-	=47-	=47-
1F	-gi-	vi-	1A	-gi-	vi-	.	.	.
.	.	.	.	.	.	2d/	-gi-	vi-
1E	-nu(m)	-te	1G	-num	-te	1e	-num	-te
=48-	=48-	=48-	=48-	=48-	=48-	=48-	=48-	=48-
!	!	!	!LO:TX:t=P:problem:w źródle skreślony tekst pod 6 semibreves	!	!	!	!	!
1C	na-	mun-	1G	na-	mun-	0e	na-	m(un)-
1C	-tum	-di	1E	-tum	-di	.	.	.
=49-	=49-	=49-	=49-	=49-	=49-	=49-	=49-	=49-
1AA	o-	chr(i-	1F	o-	cri-	1c	-tu(m)	-di
!	!	!	!LO:SIC:v:t=custos D	!	!	!	!	!
!	!	!	!LO:LB:g=original	!	!	!	!	!
1D	-ra	-st)e	1D	-ra	-ste	1f	o-	chri-
!LO:SIC:v:t=custos C	!	!	!	!	!	!	!	!
!LO:LB:g=original	!	!	!	!	!	!	!	!
=50-	=50-	=50-	=50-	=50-	=50-	=50-	=50-	=50-
1C	sem-	fac	1E	se-	fac	1e	-ra	-ste
2GG/	-per	ut	1G	-per	vt	2d/	sem-	fac
2C/	.	.	.	.	.	1e\	-per	vt
=51-	=51-	=51-	=51-	=51-	=51-	=51-	=51-	=51-
1F	tu-	rit-	1A	tu-	ri-	.	.	.
!	!	!	!	!	!	!LO:SIC:v:t=custos d	!	!
!	!	!	!	!	!	!LO:LB:g=original	!	!
.	.	.	.	.	.	2d/	tu-	rit-
1E	-um	-te-	1G	-u(m)	-te-	1e	-u(m)	-te-
=52-	=52-	=52-	=52-	=52-	=52-	=52-	=52-	=52-
2AA/	vt	-te	1c	vt	-te	1e	vt	-te
1A	.	.	.	.	.	.	.	.
.	.	.	1B	de-	vi-	1d	de-	vi-
2G\	de-	vi-	.	.	.	.	.	.
=53-	=53-	=53-	=53-	=53-	=53-	=53-	=53-	=53-
1F	-ter-	-den-	1A	-ter-	-den-	1f	-ter-	-den-
1C	-gat	-tes	1G	-gat	-tes	1e	-gat	-tes
=54-	=54-	=54-	=54-	=54-	=54-	=54-	=54-	=54-
1C	et	con-	1E	et	con-	2c/	et	con-
.	.	.	.	.	.	1e	ab-	-tem-
1D	ab-	-tem-	1F	ab-	-tem-	.	.	.
.	.	.	.	.	.	2d/	.	.
!	!	!	!LO:SIC:v:t=custos E	!	!	!	!	!
!	!	!	!LO:LB:g=original	!	!	!	!	!
=55-	=55-	=55-	=55-	=55-	=55-	=55-	=55-	=55-
*	*	*	*lig	*	*	*	*	*
1AA	-ster-	-ple-	1E	-ster-	-ple-	1c	-ster-	-ple-
*lig	*	*	*	*	*	*	*	*
!LO:SIC:v:t=custos D	!	!	!	!	!	!	!	!
!LO:LB:g=original	!	!	!	!	!	!	!	!
1D	.	.	1D	.	.	2A/	.	.
.	.	.	.	.	.	1d\	.	.
*	*	*	*Xlig	*	*	*	*	*
=56-	=56-	=56-	=56-	=56-	=56-	=56-	=56-	=56-
1AA	.	.	1E	-gat	.	.	.	.
!	!	!	!	!	!	!LO:SIC:v:s:t=2c#/	!	!
.	.	.	.	.	.	2c/	.	-mur
*Xlig	*	*	*	*	*	*	*	*
!	!	!	!	!	!	!LO:SIC:v:t=custos d	!	!
!	!	!	!	!	!	!LO:LB:g=original	!	!
1A	-gat	-mur	1D	.	-mur	1d	-gat	In
=57-	=57-	=57-	=57-	=57-	=57-	=57-	=57-	=57-
1F	hic	in	1A	hic	in	1f	hic	ce-
*lig	*	*	*lig	*	*	*lig	*	*
1G	nos-	ce-	1B	nos-	ce-	1d	nos-	-le-
=58-	=58-	=58-	=58-	=58-	=58-	=58-	=58-	=58-
1C	.	.	1c	.	.	1e	-tra	-sti
*Xlig	*	*	*Xlig	*	*	*Xlig	*	*
1D	-tra	-le-	1A	-tra	-le-	1f	fa-	.
=59-	=59-	=59-	=59-	=59-	=59-	=59-	=59-	=59-
*lig	*	*	*lig	*	*	*lig	*	*
1E	fa-	-sti	1G	fa-	-sti	1e	.	glo-
1AA	.	.	1A	.	.	1c	-ci-	-ri-
*Xlig	*	*	*Xlig	*	*	*Xlig	*	*
=60-	=60-	=60-	=60-	=60-	=60-	=60-	=60-	=60-
1D	-ci-	glo-	1F	-ci-	glo-	1d	-no-	-a
1GG	-no-	-ri-	1G	-no-	-ri-	[0.d;<l	-ra	.
=61-	=61-	=61-	=61-	=61-	=61-	=61-	=61-	=61-
00GG/;;	-ra	-a	00G/;>	-ra	-a	.	.	.
.	.	.	.	.	.	0d]	.	.
=-	=-	=-	=-	=-	=-	=-	=-	=-
*-	*-	*-	*-	*-	*-	*-	*-	*-
!!!system-decoration: [(g1)]
!!!RDF**kern: > = above
!!!RDF**kern: < = below
!!!RDF**kern: l = terminal long
!!!ENC:Anastazja Marusiak
!!!END:2022-01-15
!!!EED: Jędrzej Mróz
!!!EST: 2022-01-24
